X:1
T:Title
%%score { 1 | ( 2 3 ) }
L:1/8
Q:1/4=104
M:6/8
K:Bb
V:1 treble nm="Grand Piano"
V:2 bass 
V:3 bass 
V:1
 [DF][DF][DF] [DF]2 [DG] | [EF]3 [EF]3 | AAA G2 [Ge] | [Fd]6 | [Fd][Fd][Fd] [Fc]2 [FB] | %5
w: C.~Harold~Lowden * * * *|||||
 [FA]3 [Fc]3 | [=Ec][EG][EA] [EB]2 [EG] | G3 F3 | [B,DF][B,DF][B,DF] [_A,DF]2 [A,DG] | %9
w: ||||
 [A,EF]3 [A,EF]3 | AAA G2 e | [^Fd]6 | ddd e2 d | [=Ec]3 [EG]3 | AGF e2 A | [DB]6 | [Fd]3 [Bd]2 d | %17
w: ||||||||
 [Ae]3 [Ae]3 | AGF A2 G | [B,DF]6 | [Bd]3 [Fd]2 _d | [Ac]3 [Ac]3 | [=Ec][EG][EA] [EB]2 [EG] | %23
w: ||||||
 c3 _d3 | [Fd]3 [Bd]2 d | [Ae]3 [Ae]3 | AGF e2 e | [^Fd]6 | d3 G2 d | [=Ec]3 [EG]3 | AGF e2 A | %31
w: ||||||||
 [DB]6 |] %32
w: |
V:2
 [B,,B,][B,,B,][B,,B,] [=B,,_A,]2 [B,,A,] | [C,A,]3 [C,A,]3 | [F,CE][F,CE][F,CE] [F,A,E]2 [F,A,] | %3
 [B,,B,]6 | [B,,B,][B,,B,][B,,B,] [D,B,]2 [D,B,] | [C,C]3 [C,A,]3 | %6
 [C,G,][C,B,][C,A,] [C,G,]2 [C,B,] | [F,E]3- [F,A,E]3 | B,,B,,B,, =B,,2 B,, | C,3 C,3 | %10
 [F,CE][F,CE][F,CE] [F,A,E]2 [F,A,F] | [D,A,]6 | [G,=B,F][G,B,F][G,B,F] [G,B,G]2 [G,B,F] | %13
 [C,C]3 [C,B,]3 | [F,CE][F,B,E][F,A,E] [F,A,G]2 [F,E] | [B,,F,]6 | z3 [F,B,D]3 | C,3 [F,A,E]3 | %18
 [F,CE][F,B,E][F,A,E] [F,CE]2 [F,A,E] | B,,6 | z3 [F,B,D]3 | C,3 [F,A,C]3 | %22
 [C,C][C,B,][C,A,] [C,G,]2 [C,B,] | [F,A,F]6 | z3 [F,B,D]3 | C,3 [F,A,E]3 | %26
 [F,CE][F,B,E][F,A,E] [F,A,F]2 [F,A,F] | [D,A,]6 | [G,=B,F]3 [G,B,F]2 [G,B,F] | [C,C]3 [C,B,]3 | %30
 [F,CE][F,B,E][F,A,E] [F,A,G]2 [F,E] | [B,,F,]6 |] %32
V:3
 x6 | x6 | x6 | x6 | x6 | x6 | x6 | B,3 z3 | x6 | x6 | x6 | x6 | x6 | x6 | x6 | x6 | B,,3 z2 G | %17
 x6 | x6 | x6 | B,,3 z2 G | x6 | x6 | x6 | B,,3 z2 G | x6 | x6 | x6 | x6 | x6 | x6 | x6 |] %32

